src/assets/svg/icons/fa/nuevos/classic/light/user-vneck-hair classic light.svg

<svg xmlns="http://www.w3.org/2000/svg" viewBox="0 0 448 512"><path d="M96 128C96 57.31 153.3 0 224 0C294.7 0 352 57.31 352 128V144C352 214.7 294.7 272 224 272C153.3 272 96 214.7 96 144V128zM318.7 112H288.6C273.7 112 259.5 106.1 248.1 95.6L242.7 89.33C223.4 113.5 193.1 128 162.3 128H128V144C128 197 170.1 240 224 240C277 240 320 197 320 144V128C320 122.5 319.5 117.2 318.7 112V112zM251.3 52.69L271.6 72.97C276.1 77.47 282.2 80 288.6 80H307.2C290.6 51.31 259.5 32 224 32C182.2 32 146.6 58.71 133.5 96H162.3C189.1 96 213.5 80.97 225.5 57.15C226.3 55.53 227.4 54.02 228.7 52.69C234.9 46.44 245.1 46.44 251.3 52.69L251.3 52.69zM448 480C448 497.7 433.7 512 416 512H32C14.33 512 0 497.7 0 480V472C0 388.2 61.33 318.8 141.6 306.1L224 416L306.4 306.1C386.7 318.8 448 388.2 448 472V480zM128.4 341.8C72.6 358.8 32 410.7 32 472V480H416V472C416 410.7 375.4 358.8 319.6 341.8L249.6 435.2C243.6 443.3 234.1 448 224 448C213.9 448 204.4 443.3 198.4 435.2L128.4 341.8z"/></svg>

<svg xmlns="http://www.w3.org/2000/svg" viewBox="0 0 448 512"><!--! Font Awesome Pro 6.4.0 by @fontawesome - https://fontawesome.com License - https://fontawesome.com/license (Commercial License) Copyright 2023 Fonticons, Inc. --><path d="M320 128c0-5.5-.5-10.8-1.3-16H288.6c-14.9 0-29.1-5.9-39.6-16.4l-6.3-6.3C223.4 113.5 194 128 162.3 128L128 128v16c0 53 43 96 96 96s96-43 96-96V128zM228.7 52.7c6.2-6.2 16.4-6.2 22.6 0L271.6 73c4.5 4.5 10.6 7 17 7h18.6C290.6 51.3 259.5 32 224 32c-41.8 0-77.4 26.7-90.5 64h28.9c26.7 0 51.2-15 63.2-38.9c.8-1.6 1.8-3.1 3.1-4.5zM96 128C96 57.3 153.3 0 224 0s128 57.3 128 128v16c0 70.7-57.3 128-128 128s-128-57.3-128-128V128zm89.6 290.1l-57.2-76.3C72.6 358.8 32 410.7 32 472l0 8H416v-8c0-61.3-40.6-113.2-96.4-130.2l-57.2 76.3c-19.2 25.6-57.6 25.6-76.8 0zM132.1 307.8c5.8-1.3 11.7 1.2 15.3 5.9l63.9 85.2c6.4 8.5 19.2 8.5 25.6 0l63.9-85.2c3.6-4.7 9.5-7.2 15.3-5.9C391.4 324.3 448 391.5 448 472v8c0 17.7-14.3 32-32 32H32c-17.7 0-32-14.3-32-32v-8c0-80.5 56.6-147.7 132.1-164.2z"/></svg>
